src/assets/images/ru.svg

<svg fill="none" height="21" viewBox="0 0 26 21" width="26" xmlns="http://www.w3.org/2000/svg" xmlns:xlink="http://www.w3.org/1999/xlink"><filter id="a" color-interpolation-filters="sRGB" filterUnits="userSpaceOnUse" height="21" width="26" x="0" y="0"><feFlood flood-opacity="0" result="BackgroundImageFix"/><feColorMatrix in="SourceAlpha" result="hardAlpha" type="matrix" values="0 0 0 0 0 0 0 0 0 0 0 0 0 0 0 0 0 0 127 0"/><feOffset dy="2"/><feGaussianBlur stdDeviation="1.5"/><feColorMatrix type="matrix" values="0 0 0 0 0 0 0 0 0 0 0 0 0 0 0 0 0 0 0.1 0"/><feBlend in2="BackgroundImageFix" mode="normal" result="effect1_dropShadow_8_40"/><feBlend in="SourceGraphic" in2="effect1_dropShadow_8_40" mode="normal" result="shape"/></filter><linearGradient id="b" gradientUnits="userSpaceOnUse" x1="13" x2="13" y1="1" y2="16"><stop offset="0" stop-color="#fff" stop-opacity=".7"/><stop offset="1" stop-opacity=".3"/></linearGradient><mask id="c" height="15" maskUnits="userSpaceOnUse" width="20" x="3" y="1"><path d="m3 1h20v15h-20z" fill="#fff"/></mask><mask id="d" height="15" maskUnits="userSpaceOnUse" width="20" x="3" y="1"><path clip-rule="evenodd" d="m3 1v15h20v-15z" fill="#fff" fill-rule="evenodd"/></mask><g filter="url(#a)"><g mask="url(#c)"><g mask="url(#d)"><path d="m3 6h20v5h-20z" fill="#3d58db"/><g clip-rule="evenodd" fill-rule="evenodd"><path d="m3 1v5h20v-5z" fill="#f7fcff"/><path d="m3 11v5h20v-5z" fill="#c51918"/></g></g></g><path d="m3 1h20v15h-20z" fill="url(#b)"/><path d="m4.5 2h17v-2h-17zm17.5.5v12h2v-12zm-.5 12.5h-17v2h17zm-17.5-.5v-12h-2v12zm.5.5c-.27614 0-.5-.2239-.5-.5h-2c0 1.3807 1.11929 2.5 2.5 2.5zm17.5-.5c0 .2761-.2239.5-.5.5v2c1.3807 0 2.5-1.1193 2.5-2.5zm-.5-12.5c.2761 0 .5.22386.5.5h2c0-1.38071-1.1193-2.5-2.5-2.5zm-17-2c-1.38071 0-2.5 1.11929-2.5 2.5h2c0-.27614.22386-.5.5-.5z" fill="#000" fill-opacity=".1"/></g></svg>

<svg width="26" height="21" viewBox="0 0 26 21" fill="none" xmlns="http://www.w3.org/2000/svg">
<g filter="url(#filter0_d_8_40)">
<mask id="mask0_8_40" style="mask-type:alpha" maskUnits="userSpaceOnUse" x="3" y="1" width="20" height="15">
<rect x="3" y="1" width="20" height="15" fill="white"/>
</mask>
<g mask="url(#mask0_8_40)">
<mask id="mask1_8_40" style="mask-type:alpha" maskUnits="userSpaceOnUse" x="3" y="1" width="20" height="15">
<path fill-rule="evenodd" clip-rule="evenodd" d="M3 1V16H23V1H3Z" fill="white"/>
</mask>
<g mask="url(#mask1_8_40)">
<rect x="3" y="6" width="20" height="5" fill="#3D58DB"/>
<path fill-rule="evenodd" clip-rule="evenodd" d="M3 1V6H23V1H3Z" fill="#F7FCFF"/>
<path fill-rule="evenodd" clip-rule="evenodd" d="M3 11V16H23V11H3Z" fill="#C51918"/>
</g>
</g>
<rect x="3" y="1" width="20" height="15" fill="url(#paint0_linear_8_40)" style="mix-blend-mode:overlay"/>
<path d="M4.5 2H21.5V0H4.5V2ZM22 2.5V14.5H24V2.5H22ZM21.5 15H4.5V17H21.5V15ZM4 14.5V2.5H2V14.5H4ZM4.5 15C4.22386 15 4 14.7761 4 14.5H2C2 15.8807 3.11929 17 4.5 17V15ZM22 14.5C22 14.7761 21.7761 15 21.5 15V17C22.8807 17 24 15.8807 24 14.5H22ZM21.5 2C21.7761 2 22 2.22386 22 2.5H24C24 1.11929 22.8807 0 21.5 0V2ZM4.5 0C3.11929 0 2 1.11929 2 2.5H4C4 2.22386 4.22386 2 4.5 2V0Z" fill="black" fill-opacity="0.1" style="mix-blend-mode:multiply"/>
</g>
<defs>
<filter id="filter0_d_8_40" x="0" y="0" width="26" height="21" filterUnits="userSpaceOnUse" color-interpolation-filters="sRGB">
<feFlood flood-opacity="0" result="BackgroundImageFix"/>
<feColorMatrix in="SourceAlpha" type="matrix" values="0 0 0 0 0 0 0 0 0 0 0 0 0 0 0 0 0 0 127 0" result="hardAlpha"/>
<feOffset dy="2"/>
<feGaussianBlur stdDeviation="1.5"/>
<feColorMatrix type="matrix" values="0 0 0 0 0 0 0 0 0 0 0 0 0 0 0 0 0 0 0.1 0"/>
<feBlend mode="normal" in2="BackgroundImageFix" result="effect1_dropShadow_8_40"/>
<feBlend mode="normal" in="SourceGraphic" in2="effect1_dropShadow_8_40" result="shape"/>
</filter>
<linearGradient id="paint0_linear_8_40" x1="13" y1="1" x2="13" y2="16" gradientUnits="userSpaceOnUse">
<stop stop-color="white" stop-opacity="0.7"/>
<stop offset="1" stop-opacity="0.3"/>
</linearGradient>
</defs>
</svg>
